X:1
T:Title
%%score { ( 1 4 ) | ( 2 3 5 ) }
L:1/8
Q:1/4=132
M:6/4
K:Db
V:1 treble nm="Grand Piano"
V:4 treble 
V:2 bass 
V:3 bass 
V:5 bass 
V:1
 F6 F2 A2 [B,DG]2 | [A,DF]4 [B,DF]2 [CEF]6 | [B,DF]6 .[B,DF]4 [=A,DG]2 | .[DF]6 E6 | %4
w: Gordon~E.~Hooker * * *||||
 F2 F2 F2 E4 F2 | G12 | D6[K:bass] [G,B,E]4 [B,D_F]2 |[M:15/8][K:treble] [B,D]3- [B,D]6 C6 | %8
w: ||||
[M:6/8][Q:1/4=90] A A2 AAc | e d2 =G A2 | [DFA] [DGB]2 [B,GB] [Gd]2 | z [Ec]2- [Ec] z z | %12
w: ||||
 [CGA] [DGB]2 [EAc] [DAd]2 |[M:7/8] [Ae]fe [Ad] e3 |[M:13/16] z/ z/ z/ z/ z/ z/ z a/-a-<a | %15
w: |||
[M:3/4] [EGc][DFd]- [DFd]4 | [F_cd]/[Fcd]/[Gd]- [Gd]4- | [Gd][FAdf]- [FAdf]4 |] %18
w: |||
V:2
 z6 .A,6 | D,4 B,,2 =A,,6 | B,,6 z2 A2 D,2 | D,2 E,2 B,,2 z2 A,4 | %4
 [D,A,D]2 [F,A,D]2 [A,D]2 [G,B,]4 [D,A,B,]2 | [E,G,B,]12 | [G,B,]6 G,,4 G,,2 |[M:15/8] z3 z6 =A,6 | %8
[M:6/8] A, A,2 A,A,[K:treble]C | E D2 =G, A,2 | D, G,2 G, [E,B,]2 | E, A,2- A, A,,2 | %12
 A,,A,,A, G, F,2 |[M:7/8] [A,C][D,D][E,C] [F,D][K:treble] [A,CA]3 |[M:13/16] z A-<A z .A3/2 z | %15
[M:3/4][K:bass] A,D,- D,4 | z2[K:treble] z2 e2- | e[K:bass] z z2 z2 |] %18
V:3
 [D,A,D]6 [D,D]2- [D,CD]2 D,2 | x12 | z6 .D,6 | z6 A,,6 | x12 | x12 | x12 | %7
[M:15/8] F,,3- F,,3- F,,3- F,,6- |[M:6/8] F,,3 z3[K:treble] | x6 | x6 | x6 | x6 | %13
[M:7/8] x4[K:treble] x3 |[M:13/16] A,[DF][CE][DA][A,F]/-[A,F]-<[A,F] |[M:3/4][K:bass] x6 | %16
 D<.D[K:treble] z2 z2 | =A[K:bass][D,D]- [D,D]4 |] %18
V:4
 x12 | x12 | x12 | A,2 =G,2 [G,DE]2 [B,D]2 C4 | x12 | x12 | x6[K:bass] x6 | %7
[M:15/8][K:treble] F3- F3- F3- F6- |[M:6/8] F3 z3 | x6 | x6 | [EGB] G2- G- [DGB]2 | x6 | %13
[M:7/8] z A2 z z z2 |[M:13/16] Ade.f3/2 z/ d3/2 |[M:3/4] x6 | z B- B4 | x6 |] %18
V:5
 x12 | x12 | x12 | x12 | x12 | x12 | x12 |[M:15/8] x15 |[M:6/8] x5[K:treble] x | x6 | x6 | x6 | %12
 x6 |[M:7/8] x4[K:treble] x3 |[M:13/16] x13/2 |[M:3/4][K:bass] x6 | z[K:treble] G,- G,4- | %17
 G,[K:bass] z z2 z2 |] %18

